www/assets/icons/tapas.svg

<svg width="24" height="24" viewBox="0 0 24 24" xmlns="http://www.w3.org/2000/svg" fill='currentColor'><path d="M22.25 10V1H14.25V10C14.25 11.86 15.53 13.41 17.25 13.86V21H15.25V23H21.25V21H19.25V13.86C20.97 13.41 22.25 11.86 22.25 10ZM20.25 3V6H16.25V3H20.25ZM12.75 11.5C12.75 12.88 11.63 14 10.25 14H8.25V23H6.25V14H4.25C2.87 14 1.75 12.88 1.75 11.5C1.75 10.12 2.87 9 4.25 9H6.25V8H4.25C2.87 8 1.75 6.88 1.75 5.5C1.75 4.12 2.87 3 4.25 3H6.25V1H8.25V3H10.25C11.63 3 12.75 4.12 12.75 5.5C12.75 6.88 11.63 8 10.25 8H8.25V9H10.25C11.63 9 12.75 10.12 12.75 11.5Z"/></svg>

<svg xmlns="http://www.w3.org/2000/svg" width="24" height="24" viewBox="0 0 24 24" fill='currentColor'><path d="M22.25 10V1h-8v9c0 1.86 1.28 3.41 3 3.86V21h-2v2h6v-2h-2v-7.14c1.72-.45 3-2 3-3.86m-2-7v3h-4V3zm-7.5 8.5a2.5 2.5 0 0 1-2.5 2.5h-2v9h-2v-9h-2a2.5 2.5 0 0 1 0-5h2V8h-2a2.5 2.5 0 0 1 0-5h2V1h2v2h2a2.5 2.5 0 0 1 0 5h-2v1h2a2.5 2.5 0 0 1 2.5 2.5"/></svg>
